fancy/img/svg/sidenavtoggle.svg

<svg width="18" height="18" xmlns="http://www.w3.org/2000/svg" xmlns:sketch="http://www.bohemiancoding.com/sketch/ns"><title>sidenavtoggle</title><path d="M0 0v4h18v-4h-18zm0 7v4h18v-4h-18zm0 7v4h18v-4h-18z" fill="#6C7396" sketch:type="MSShapeGroup"/></svg>

<?xml version="1.0" encoding="UTF-8" standalone="no"?>
<svg width="18px" height="18px" viewBox="0 0 18 18" version="1.1" xmlns="http://www.w3.org/2000/svg" xmlns:xlink="http://www.w3.org/1999/xlink" xmlns:sketch="http://www.bohemiancoding.com/sketch/ns">
    <title>sidenavtoggle</title>
    <description>Created with Sketch (http://www.bohemiancoding.com/sketch)</description>
    <defs></defs>
    <g id="Page-1" stroke="none" stroke-width="1" fill="none" fill-rule="evenodd" sketch:type="MSPage">
        <path d="M0,0 L0,4 L18,4 L18,0 L0,0 Z M0,7 L0,11 L18,11 L18,7 L0,7 Z M0,14 L0,18 L18,18 L18,14 L0,14 Z" id="(Icon)-Portal-hover" fill="#6C7396" sketch:type="MSShapeGroup"></path>
    </g>
</svg>
